app/img/icons/report.svg

<svg width="50" height="50" viewBox="0 0 50 50" fill="none" xmlns="http://www.w3.org/2000/svg">
<g clip-path="url(#clip0)">
<path d="M9.23527 26.8016C8.83285 27.4717 8.6207 28.2387 8.6207 29.0191V29.3103C8.6207 31.6869 10.5545 33.6207 12.931 33.6207C15.3076 33.6207 17.2414 31.6869 17.2414 29.3103V29.0191C17.2414 28.2387 17.0292 27.4717 16.6268 26.8016L12.931 20.6404L9.23527 26.8016Z" fill="#0033A1"/>
<path d="M25.6672 44.3267L22.1086 32.7586H17.8757C16.7838 34.3199 14.9759 35.3448 12.931 35.3448C10.8862 35.3448 9.07825 34.3199 7.98635 32.7586H3.75345L2.69228 36.2069H6.03449V37.931H2.16191L1.63195 39.6552H8.62069V41.3793H1.10074L0.570784 43.1035H6.03449V44.8276H0.0799772C0.0319908 45.0877 0 45.3508 0 45.6164C0 48.0338 1.96617 50 4.38359 50H21.4785C23.8959 50 25.8621 48.0338 25.8621 45.6164C25.8621 45.1786 25.7964 44.7447 25.6672 44.3267Z" fill="#BE9230"/>
<path d="M20.6896 15.5172V17.2414H32.7586V3.44827H18.9655V10.3448H20.6896C21.6405 10.3448 22.4138 11.1181 22.4138 12.069V13.7931C22.4138 14.744 21.6405 15.5172 20.6896 15.5172Z" fill="#BE9230"/>
<path d="M5.17239 12.069H20.6905V13.7931H5.17239V12.069Z" fill="#0033A1"/>
<path d="M15.5173 0V10.3448H17.2414V1.72414H34.4828V18.9655H20.6897V21.625C20.6897 22.0627 20.7553 22.4967 20.8846 22.9147L27.3164 43.8199C27.4957 44.4024 27.5862 45.0069 27.5862 45.6164C27.5862 47.3363 26.869 48.8887 25.7215 50H50V0H15.5173ZM48.2759 28.5862H24.1379V26.8621H48.2759V28.5862ZM48.2759 24.1379H24.1379V22.4138H48.2759V24.1379ZM48.2759 18.1034H36.2069V16.3793H48.2759V18.1034ZM48.2759 13.2069H36.2069V11.4828H48.2759V13.2069ZM48.2759 8.75862H36.2069V7.03448H48.2759V8.75862Z" fill="#0033A1"/>
<path d="M6.89655 29.3103V29.0191C6.89655 27.9259 7.19415 26.8517 7.75693 25.9138L12.931 17.2906L18.1051 25.9147C18.6679 26.8517 18.9655 27.9267 18.9655 29.0191V29.3103C18.9655 29.9093 18.875 30.4881 18.7113 31.0345H21.5774L19.2353 23.4215C19.056 22.8389 18.9655 22.2345 18.9655 21.625V15.5172H6.89655V21.625C6.89655 22.2345 6.80605 22.8389 6.62673 23.4215L4.28382 31.0345H7.14995C6.98705 30.4881 6.89655 29.9093 6.89655 29.3103Z" fill="#0033A1"/>
</g>
<defs>
<clipPath id="clip0">
<rect width="50" height="50" fill="white"/>
</clipPath>
</defs>
</svg>

<svg width="50" height="50" fill="none" xmlns="http://www.w3.org/2000/svg"><g clip-path="url(#clip0)"><path d="M9.235 26.802a4.308 4.308 0 00-.614 2.217v.291a4.315 4.315 0 004.31 4.31 4.315 4.315 0 004.31-4.31v-.29c0-.781-.212-1.548-.614-2.218L12.93 20.64l-3.696 6.162z" fill="#0033A1"/><path d="M25.667 44.327L22.11 32.759h-4.233a6.028 6.028 0 01-4.945 2.586 6.028 6.028 0 01-4.945-2.586H3.753l-1.06 3.448h3.341v1.724H2.162l-.53 1.724h6.989v1.724H1.1l-.53 1.724h5.463v1.725H.08c-.048.26-.08.523-.08.788A4.388 4.388 0 004.384 50h17.094a4.388 4.388 0 004.19-5.673zM20.69 15.517v1.724h12.069V3.448H18.965v6.897h1.725c.95 0 1.724.773 1.724 1.724v1.724c0 .951-.774 1.724-1.724 1.724z" fill="#BE9230"/><path d="M5.172 12.069H20.69v1.724H5.172V12.07z" fill="#0033A1"/><path d="M15.517 0v10.345h1.724v-8.62h17.242v17.24H20.69v2.66c0 .438.065.872.195 1.29l6.431 20.905A6.086 6.086 0 0125.721 50H50V0H15.517zm32.759 28.586H24.138v-1.724h24.138v1.724zm0-4.448H24.138v-1.724h24.138v1.724zm0-6.035h-12.07V16.38h12.07v1.724zm0-4.896h-12.07v-1.724h12.07v1.724zm0-4.448h-12.07V7.034h12.07V8.76z" fill="#0033A1"/><path d="M6.897 29.31v-.29c0-1.094.297-2.168.86-3.106l5.174-8.623 5.174 8.624c.563.937.86 2.012.86 3.104v.291a6 6 0 01-.254 1.725h2.866l-2.342-7.613a6.101 6.101 0 01-.27-1.797v-6.108H6.897v6.108a6.1 6.1 0 01-.27 1.797l-2.343 7.613H7.15a6.028 6.028 0 01-.253-1.725z" fill="#0033A1"/></g><defs><clipPath id="clip0"><path fill="#fff" d="M0 0h50v50H0z"/></clipPath></defs></svg>
